Icons/Line/si_Settings_alt.svg

<svg width="24" height="24" fill="none" xmlns="http://www.w3.org/2000/svg"><g clip-path="url(#a)" stroke="#000" stroke-width="1.5"><path d="M21.4 10h-2.69a6.77 6.77 0 0 0-.55-1.33l1.9-1.9c.62-.62.62-1.64 0-2.26l-.57-.57c-.62-.62-1.64-.62-2.26 0l-1.9 1.9A6.77 6.77 0 0 0 14 5.29V2.6c0-.88-.72-1.6-1.6-1.6h-.8c-.88 0-1.6.72-1.6 1.6v2.69c-.47.14-.91.32-1.33.55l-1.9-1.9c-.62-.62-1.64-.62-2.26 0l-.57.57c-.62.62-.62 1.64 0 2.26l1.9 1.9c-.23.42-.41.86-.55 1.33H2.6c-.88 0-1.6.72-1.6 1.6v.8c0 .88.72 1.6 1.6 1.6h2.69c.14.47.32.91.55 1.33l-1.9 1.9c-.62.62-.62 1.64 0 2.26l.57.57c.62.62 1.64.62 2.26 0l1.9-1.9c.42.23.86.41 1.33.55v2.69c0 .88.72 1.6 1.6 1.6h.8c.88 0 1.6-.72 1.6-1.6v-2.69c.47-.14.91-.32 1.33-.55l1.9 1.9c.62.62 1.64.62 2.26 0l.57-.57c.62-.62.62-1.64 0-2.26l-1.9-1.9c.23-.42.41-.86.55-1.33h2.69c.88 0 1.6-.72 1.6-1.6v-.8c0-.88-.72-1.6-1.6-1.6Z" stroke-linejoin="round"/><path d="M12 16a4 4 0 1 0 0-8 4 4 0 0 0 0 8Z" stroke-miterlimit="10"/></g><defs><clipPath id="a"><path fill="#fff" d="M0 0h24v24H0z"/></clipPath></defs></svg>

<svg width="24" height="24" viewBox="0 0 24 24" fill="none" xmlns="http://www.w3.org/2000/svg">
<g clip-path="url(#clip0_22_110)">
<path d="M21.4 10H18.71C18.57 9.53 18.39 9.09 18.16 8.67L20.06 6.77C20.68 6.15 20.68 5.13 20.06 4.51L19.49 3.94C18.87 3.32 17.85 3.32 17.23 3.94L15.33 5.84C14.91 5.61 14.47 5.43 14 5.29V2.6C14 1.72 13.28 1 12.4 1H11.6C10.72 1 10 1.72 10 2.6V5.29C9.53 5.43 9.09 5.61 8.67 5.84L6.77 3.94C6.15 3.32 5.13 3.32 4.51 3.94L3.94 4.51C3.32 5.13 3.32 6.15 3.94 6.77L5.84 8.67C5.61 9.09 5.43 9.53 5.29 10H2.6C1.72 10 1 10.72 1 11.6V12.4C1 13.28 1.72 14 2.6 14H5.29C5.43 14.47 5.61 14.91 5.84 15.33L3.94 17.23C3.32 17.85 3.32 18.87 3.94 19.49L4.51 20.06C5.13 20.68 6.15 20.68 6.77 20.06L8.67 18.16C9.09 18.39 9.53 18.57 10 18.71V21.4C10 22.28 10.72 23 11.6 23H12.4C13.28 23 14 22.28 14 21.4V18.71C14.47 18.57 14.91 18.39 15.33 18.16L17.23 20.06C17.85 20.68 18.87 20.68 19.49 20.06L20.06 19.49C20.68 18.87 20.68 17.85 20.06 17.23L18.16 15.33C18.39 14.91 18.57 14.47 18.71 14H21.4C22.28 14 23 13.28 23 12.4V11.6C23 10.72 22.28 10 21.4 10V10Z" stroke="black" stroke-width="1.5" stroke-linejoin="round"/>
<path d="M12 16C14.2091 16 16 14.2091 16 12C16 9.79086 14.2091 8 12 8C9.79086 8 8 9.79086 8 12C8 14.2091 9.79086 16 12 16Z" stroke="black" stroke-width="1.5" stroke-miterlimit="10"/>
</g>
<defs>
<clipPath id="clip0_22_110">
<rect width="24" height="24" fill="white"/>
</clipPath>
</defs>
</svg>
